svgs/thin/window-frame-open.svg

<svg xmlns="http://www.w3.org/2000/svg" viewBox="0 0 512 512"><!--! Font Awesome Pro 6.6.0 by @fontawesome - https://fontawesome.com License - https://fontawesome.com/license (Commercial License) Copyright 2024 Fonticons, Inc. --><path d="M264 16l0 256 200 0 0-208c0-26.5-21.5-48-48-48L264 16zM480 64l0 208 0 16-16 0L48 288l-16 0 0-16L32 64C32 28.7 60.7 0 96 0L416 0c35.3 0 64 28.7 64 64zM248 272l0-256L96 16C69.5 16 48 37.5 48 64l0 208 200 0zM8 496l24 0 0-176 16 0 0 176 416 0 0-176 16 0 0 176 24 0c4.4 0 8 3.6 8 8s-3.6 8-8 8l-32 0L40 512 8 512c-4.4 0-8-3.6-8-8s3.6-8 8-8z"/></svg>

<svg xmlns="http://www.w3.org/2000/svg" viewBox="0 0 512 512"><!--! Font Awesome Pro 6.4.2 by @fontawesome - https://fontawesome.com License - https://fontawesome.com/license (Commercial License) Copyright 2023 Fonticons, Inc. --><path d="M264 16V272H464V64c0-26.5-21.5-48-48-48H264zM480 64V272v16H464 48 32V272 64C32 28.7 60.7 0 96 0H416c35.3 0 64 28.7 64 64zM248 272V16H96C69.5 16 48 37.5 48 64V272H248zM8 496H32V320H48V496H464V320h16V496h24c4.4 0 8 3.6 8 8s-3.6 8-8 8H472 40 8c-4.4 0-8-3.6-8-8s3.6-8 8-8z"/></svg>
